svgs/themed_icon_calendar_28.svg

<svg height="192" width="192" xmlns="http://www.w3.org/2000/svg"><path d="M146 30H46c-8.837 0-16 7.163-16 16v100c0 8.837 7.163 16 16 16h75.373a16 16 0 0 0 11.313-4.686l24.628-24.628A16 16 0 0 0 162 121.373V46c0-8.837-7.163-16-16-16Z" stroke="#000" stroke-width="12" fill="none"/><path d="M63.484 120c-1.824 0-3.144-.408-3.96-1.224-.816-.864-1.224-2.112-1.224-3.744 0-1.056.264-2.04.792-2.952.528-.912 1.248-1.848 2.16-2.808l13.536-14.256c2.016-2.16 3.456-4.08 4.32-5.76.912-1.68 1.368-3.36 1.368-5.04 0-4.32-2.664-6.48-7.992-6.48-1.392 0-2.832.192-4.32.576-1.44.384-2.952 1.056-4.536 2.016-1.296.768-2.496.936-3.6.504-1.056-.432-1.848-1.176-2.376-2.232a5.23 5.23 0 0 1-.36-3.312c.288-1.2 1.08-2.184 2.376-2.952a24.478 24.478 0 0 1 6.912-2.88c2.496-.672 4.968-1.008 7.416-1.008 5.664 0 9.984 1.272 12.96 3.816 3.024 2.496 4.536 6.072 4.536 10.728 0 3.072-.72 6.024-2.16 8.856-1.392 2.784-3.696 5.808-6.912 9.072l-9.792 9.936h16.704c3.12 0 4.68 1.512 4.68 4.536 0 3.072-1.56 4.608-4.68 4.608H63.484Zm53.396.792c-6.048 0-10.776-1.272-14.184-3.816-3.408-2.592-5.112-6.192-5.112-10.8 0-2.976.744-5.544 2.232-7.704 1.536-2.16 3.552-3.696 6.048-4.608-2.112-1.056-3.816-2.592-5.112-4.608-1.248-2.064-1.872-4.392-1.872-6.984 0-4.32 1.608-7.704 4.824-10.152 3.264-2.448 7.656-3.672 13.176-3.672 5.52 0 9.912 1.224 13.176 3.672 3.264 2.448 4.896 5.832 4.896 10.152 0 2.64-.648 4.992-1.944 7.056-1.248 2.064-2.928 3.576-5.04 4.536 2.496.96 4.488 2.52 5.976 4.68 1.488 2.16 2.232 4.704 2.232 7.632 0 4.608-1.704 8.208-5.112 10.8-3.408 2.544-8.136 3.816-14.184 3.816Zm0-30.744c2.448 0 4.344-.576 5.688-1.728 1.392-1.2 2.088-2.808 2.088-4.824s-.696-3.6-2.088-4.752c-1.344-1.152-3.24-1.728-5.688-1.728-2.448 0-4.344.576-5.688 1.728-1.344 1.152-2.016 2.736-2.016 4.752 0 2.016.672 3.624 2.016 4.824 1.344 1.152 3.24 1.728 5.688 1.728Zm0 22.176c6.048 0 9.072-2.28 9.072-6.84 0-4.512-3.024-6.768-9.072-6.768-2.928 0-5.184.576-6.768 1.728-1.536 1.104-2.304 2.784-2.304 5.04 0 2.256.768 3.96 2.304 5.112 1.584 1.152 3.84 1.728 6.768 1.728Z"/></svg>

<?xml version="1.0" encoding="UTF-8" standalone="no"?><svg xmlns:android="http://schemas.android.com/apk/res/android" height="192" width="192" xmlns="http://www.w3.org/2000/svg">
  <path d="M146,30H46C37.163,30 30,37.163 30,46V146C30,154.837 37.163,162 46,162H121.373C125.616,162 129.686,160.314 132.686,157.314L157.314,132.686C160.314,129.686 162,125.616 162,121.373V46C162,37.163 154.837,30 146,30Z" fill="#000000" fill-opacity="0.0" stroke="#000000" stroke-width="12"/>
  <path d="M63.484,120C61.66,120 60.34,119.592 59.524,118.776C58.708,117.912 58.3,116.664 58.3,115.032C58.3,113.976 58.564,112.992 59.092,112.08C59.62,111.168 60.34,110.232 61.252,109.272L74.788,95.016C76.804,92.856 78.244,90.936 79.108,89.256C80.02,87.576 80.476,85.896 80.476,84.216C80.476,79.896 77.812,77.736 72.484,77.736C71.092,77.736 69.652,77.928 68.164,78.312C66.724,78.696 65.212,79.368 63.628,80.328C62.332,81.096 61.132,81.264 60.028,80.832C58.972,80.4 58.18,79.656 57.652,78.6C57.172,77.544 57.052,76.44 57.292,75.288C57.58,74.088 58.372,73.104 59.668,72.336C61.78,71.04 64.084,70.08 66.58,69.456C69.076,68.784 71.548,68.448 73.996,68.448C79.66,68.448 83.98,69.72 86.956,72.264C89.98,74.76 91.492,78.336 91.492,82.992C91.492,86.064 90.772,89.016 89.332,91.848C87.94,94.632 85.636,97.656 82.42,100.92L72.628,110.856H89.332C92.452,110.856 94.012,112.368 94.012,115.392C94.012,118.464 92.452,120 89.332,120H63.484ZM116.88,120.792C110.832,120.792 106.104,119.52 102.696,116.976C99.288,114.384 97.584,110.784 97.584,106.176C97.584,103.2 98.328,100.632 99.816,98.472C101.352,96.312 103.368,94.776 105.864,93.864C103.752,92.808 102.048,91.272 100.752,89.256C99.504,87.192 98.88,84.864 98.88,82.272C98.88,77.952 100.488,74.568 103.704,72.12C106.968,69.672 111.36,68.448 116.88,68.448C122.4,68.448 126.792,69.672 130.056,72.12C133.32,74.568 134.952,77.952 134.952,82.272C134.952,84.912 134.304,87.264 133.008,89.328C131.76,91.392 130.08,92.904 127.968,93.864C130.464,94.824 132.456,96.384 133.944,98.544C135.432,100.704 136.176,103.248 136.176,106.176C136.176,110.784 134.472,114.384 131.064,116.976C127.656,119.52 122.928,120.792 116.88,120.792ZM116.88,90.048C119.328,90.048 121.224,89.472 122.568,88.32C123.96,87.12 124.656,85.512 124.656,83.496C124.656,81.48 123.96,79.896 122.568,78.744C121.224,77.592 119.328,77.016 116.88,77.016C114.432,77.016 112.536,77.592 111.192,78.744C109.848,79.896 109.176,81.48 109.176,83.496C109.176,85.512 109.848,87.12 111.192,88.32C112.536,89.472 114.432,90.048 116.88,90.048ZM116.88,112.224C122.928,112.224 125.952,109.944 125.952,105.384C125.952,100.872 122.928,98.616 116.88,98.616C113.952,98.616 111.696,99.192 110.112,100.344C108.576,101.448 107.808,103.128 107.808,105.384C107.808,107.64 108.576,109.344 110.112,110.496C111.696,111.648 113.952,112.224 116.88,112.224Z" fill="#000000"/>
</svg>
